svgs/thin/print-slash.svg

<svg xmlns="http://www.w3.org/2000/svg" viewBox="0 0 640 512"><!--! Font Awesome Pro 6.3.0 by @fontawesome - https://fontawesome.com License - https://fontawesome.com/license (Commercial License) Copyright 2023 Fonticons, Inc. --><path d="M375.3 208H512c26.47 0 48 21.53 48 48v96c0 .8516-.3574 1.586-.4863 2.4l13.51 10.74C574.9 361.1 576 356.7 576 352V256c0-35.35-28.65-64-64-64h-156.8L375.3 208zM184 16h226.8c6.312 0 12.5 2.562 16.97 7.031l45.25 45.25C477.4 72.75 480 78.94 480 85.25V152C480 156.4 483.6 160 488 160s8-3.578 8-8V85.25c0-10.69-4.156-20.72-11.72-28.28l-45.25-45.25C431.6 4.266 421.3 0 410.8 0H184C166.8 0 152.4 11.04 146.8 26.32l13.78 10.96C161.1 25.38 171.7 16 184 16zM480 272C480 280.8 487.2 288 496 288S512 280.8 512 272S504.8 256 496 256S480 263.2 480 272zM480 488c0 4.406-3.594 8-8 8h-304C163.6 496 160 492.4 160 488v-144c0-4.406 3.594-8 8-8h136.9L284.8 320H168c-13.22 0-24 10.77-24 24v24H96c-8.824 0-16-7.178-16-16V256c0-26.47 21.53-48 48-48h15.9L124.2 192.4C90.68 194.4 64 221.9 64 256v96c0 17.67 14.33 32 32 32h48v104C144 501.2 154.8 512 168 512h304c13.22 0 24-10.77 24-24L480 475.2V488zM636.1 497.7L12.99 1.73C11.53 .5664 9.771 0 8.025 0C5.674 0 3.336 1.029 1.738 3.012c-2.75 3.469-2.172 8.5 1.281 11.25l623.1 496C628.5 511.4 630.2 512 631.1 512c2.344 0 4.688-1.031 6.266-3.016C641 505.5 640.4 500.5 636.1 497.7z"/></svg>

<svg xmlns="http://www.w3.org/2000/svg" viewBox="0 0 640 512"><!-- Font Awesome Pro 6.0.0-alpha2 by @fontawesome - https://fontawesome.com License - https://fontawesome.com/license (Commercial License) --><path d="M375.333 208H511.999C538.468 208 559.999 229.533 559.999 256V352C559.999 352.852 559.642 353.586 559.513 354.4L573.023 365.139C574.855 361.107 575.999 356.715 575.999 352V256C575.999 220.652 547.347 192 511.999 192H355.204L375.333 208ZM183.999 16H410.749C417.062 16 423.249 18.562 427.718 23.031L472.968 68.281C477.437 72.75 479.999 78.938 479.999 85.25V152C479.999 156.422 483.593 160 487.999 160S495.999 156.422 495.999 152V85.25C495.999 74.562 491.843 64.531 484.281 56.969L439.031 11.719C431.593 4.266 421.281 0 410.749 0H183.999C166.788 0 152.4 11.041 146.769 26.316L160.552 37.273C161.972 25.381 171.745 16 183.999 16ZM479.999 272C479.999 280.822 487.175 288 495.999 288S511.999 280.822 511.999 272S504.824 256 495.999 256S479.999 263.178 479.999 272ZM479.999 488C479.999 492.406 476.406 496 471.999 496H167.999C163.593 496 159.999 492.406 159.999 488V344C159.999 339.594 163.593 336 167.999 336H304.927L284.798 320H167.999C154.781 320 143.999 330.766 143.999 344V368H95.999C87.175 368 79.999 360.822 79.999 352V256C79.999 229.533 101.531 208 127.999 208H143.896L124.243 192.379C90.681 194.361 63.999 221.939 63.999 256V352C63.999 369.672 78.327 384 95.999 384H143.999V488C143.999 501.234 154.781 512 167.999 512H471.999C485.218 512 495.999 501.234 495.999 488V487.881L479.999 475.162V488ZM636.982 497.734L12.988 1.73C11.525 0.566 9.771 0 8.025 0C5.673 0 3.335 1.029 1.738 3.012C-1.012 6.48 -0.434 11.512 3.019 14.262L627.013 510.266C628.497 511.438 630.247 512 631.997 512C634.341 512 636.685 510.969 638.263 508.984C641.013 505.516 640.435 500.484 636.982 497.734Z"/></svg>
